X:131
T:Trumpet minuet
R:Minuet:Waltz
O:England
M:3/4
A:Lancashire
B:Winder
K:D
D2DE FD | F2 FG AF | A2 AB cA | d4 e2 | \
f2 d2 e2 | f2 d2 e2 | f2 gf ef | d6 :|*
|:a2 fg ab | a2 ba gf | g2 ef ga | g2 ag fe |\
f2 de fg | f2 g2 a2 |[1 ba gf ed | e6 :|[2\
gf ed ec | d6 ||**
